icons/podnews.svg

<svg width="32" height="32" viewBox="0 0 32 32" fill="none" xmlns="http://www.w3.org/2000/svg">
<path d="M3.36667 28.6333C0.913335 26.18 0 22.18 0 16C0 9.82 0.913335 5.82 3.36667 3.36667C5.82 0.913333 9.82 0 16 0C22.18 0 26.18 0.913333 28.6333 3.36667C31.0867 5.82 32 9.82 32 16C32 22.18 31.0867 26.18 28.6333 28.6333C26.18 31.0867 22.18 32 16 32C9.82 32 5.82 31.0867 3.36667 28.6333Z" fill="white"/>
<path d="M14.5667 25.86C15.1067 25.86 15.5467 26.3 15.5467 26.8333C15.5467 27.3667 15.1067 27.8067 14.5733 27.8067C14.04 27.8067 13.6 27.3667 13.6 26.82C13.5867 26.3 14.02 25.86 14.56 25.86M19.58 11.4133C19.58 11.7067 19.3467 11.9333 19.06 11.9333C18.7733 11.9333 18.54 11.7 18.54 11.4133V9.40668C18.54 9.11335 18.7733 8.88668 19.06 8.88668C19.3467 8.88668 19.58 9.12668 19.58 9.40668V11.4133ZM15.9867 4.20002C15.9867 4.20002 10 3.88002 10 10.4533V21.16H12.96V19.2733H12.3667V10.4133C12.3667 10.2333 12.38 10.0533 12.4067 9.88001C12.66 8.09335 14.16 6.70002 16 6.60668H16.18C17.6333 6.60668 18.9 7.42001 19.54 8.62668C19.4 8.53335 19.24 8.49335 19.0667 8.49335C18.5533 8.49335 18.1467 8.90668 18.1467 9.41335V11.4133C18.1467 11.9267 18.56 12.3333 19.0667 12.3333C19.24 12.3333 19.4 12.28 19.54 12.2C18.9 13.3933 17.6333 14.22 16.18 14.22C15.46 14.22 14.7867 14.02 14.2133 13.6667V19.2667H13.6333V22.6067C13.6333 22.8667 13.7467 23.1 13.9133 23.28C14.0867 23.4533 14.3267 23.56 14.5867 23.56C15.1067 23.56 15.5267 23.14 15.5267 22.62V22.0067C15.5267 21.9133 15.5467 21.8333 15.58 21.7533C15.68 21.5 15.92 21.3333 16.2 21.3333C16.48 21.3333 16.7333 21.5067 16.8333 21.7533C16.8667 21.8333 16.8867 21.9133 16.8867 22.0067V23.7533C16.8867 24.0133 17 24.2467 17.1667 24.4267C17.34 24.6 17.5667 24.7067 17.8267 24.7067C18.3467 24.7067 18.7667 24.2867 18.7667 23.7667V22.02C18.7667 21.9267 18.7867 21.8467 18.82 21.7667C18.92 21.5133 19.16 21.3467 19.44 21.3467C19.72 21.3467 19.9733 21.52 20.06 21.7667C20.0933 21.8467 20.1133 21.9267 20.1133 22.02V26.8467C20.1133 27.1067 20.2267 27.34 20.3933 27.52C20.5667 27.6933 20.7933 27.8 21.0533 27.8C21.3133 27.8 21.5467 27.6867 21.7133 27.52C21.8867 27.3467 21.9933 27.1067 21.9933 26.8467V10.74C21.9933 3.75335 16.0067 4.20002 16.0067 4.20002" fill="#B01212"/>
</svg>

<svg xmlns="http://www.w3.org/2000/svg" width="32" height="32" fill="none" viewBox="0 0 32 32">
  <path fill="#fff" d="M3.367 28.633C.913 26.18 0 22.18 0 16 0 9.82.913 5.82 3.367 3.367 5.82.913 9.82 0 16 0c6.18 0 10.18.913 12.633 3.367C31.087 5.82 32 9.82 32 16c0 6.18-.913 10.18-3.367 12.633C26.18 31.087 22.18 32 16 32c-6.18 0-10.18-.913-12.633-3.367Z"/>
  <path fill="#B01212" d="M14.567 25.86c.54 0 .98.44.98.973a.98.98 0 0 1-.974.974.982.982 0 0 1-.973-.987.952.952 0 0 1 .96-.96m5.02-14.447a.52.52 0 0 1-1.04 0V9.407c0-.294.233-.52.52-.52.287 0 .52.24.52.52v2.006ZM15.987 4.2S10 3.88 10 10.453V21.16h2.96v-1.887h-.593v-8.86A3.83 3.83 0 0 1 16 6.606h.18c1.453 0 2.72.814 3.36 2.02a.834.834 0 0 0-.473-.133.918.918 0 0 0-.92.92v2a.918.918 0 0 0 1.393.787 3.823 3.823 0 0 1-3.36 2.02c-.72 0-1.393-.2-1.967-.553v5.6h-.58v3.34c0 .26.114.493.28.673.174.173.414.28.674.28.52 0 .94-.42.94-.94v-.613c0-.094.02-.174.053-.254a.66.66 0 0 1 .62-.42.688.688 0 0 1 .687.674v1.746c0 .26.113.494.28.674.173.173.4.28.66.28.52 0 .94-.42.94-.94V22.02c0-.093.02-.173.053-.253a.66.66 0 0 1 .62-.42c.28 0 .533.173.62.42.033.08.053.16.053.253v4.827c0 .26.114.493.28.673.174.173.4.28.66.28s.494-.113.66-.28a.953.953 0 0 0 .28-.673V10.74c0-6.987-5.986-6.54-5.986-6.54"/>
</svg>
